public/images/four-squares/icon.svg

<svg height="2733.3333" viewBox="0 0 2733.3333 2733.3333" width="2733.3333" xmlns="http://www.w3.org/2000/svg" xmlns:xlink="http://www.w3.org/1999/xlink"><clipPath id="a"><path d="m0 2050h2050v-2050h-2050z"/></clipPath><clipPath id="b"><path d="m0 2050h2050v-2050h-2050z"/></clipPath><g transform="matrix(1.3333333 0 0 -1.3333333 0 2733.3333)"><path d="m0 0h2050v2050h-2050z" fill="#424242"/><g clip-path="url(#a)"><path d="m0 0h-505.101v1024.001h1023.855v-512.001s23.207-512-518.754-512" fill="#53c3ee" transform="translate(1530.1018 1)"/><path d="m0 0h505.102v1024.001h-1023.856v-512.001s-23.207-512 518.754-512" fill="#f2e247" transform="translate(519.8982 1)"/><path d="m0 0h-505.101v-1023.999h1023.855v512s23.207 511.999-518.754 511.999" fill="#eb6868" transform="translate(1530.1018 2049)"/><path d="m0 0h505.102v-1023.999h-1023.856v512s-23.207 511.999 518.754 511.999" fill="#75c16e" transform="translate(519.8982 2049)"/></g><g clip-path="url(#b)"><path d="m0 0h2048" fill="none" stroke="#424242" stroke-miterlimit="10" stroke-width="96" transform="translate(1 1025.0011)"/><path d="m0 0v-2048z" fill="none" stroke="#424242" stroke-miterlimit="10" stroke-width="96" transform="translate(1025 2049)"/><path d="m0 0h-1011.189c-542.49 0-519.26-512.499-519.26-512.499v-512.498-512.503s-23.23-512.5 519.26-512.5h1011.189c542.491 0 519.261 512.5 519.261 512.5v1025.001s23.23 512.499-519.261 512.499m0-64c79.492 0 149.885-12.046 209.223-35.804 49.763-19.924 92.827-48.572 127.997-85.149 27.932-29.048 51.49-63.671 70.019-102.905 15.237-32.263 27.157-67.735 35.427-105.43 14.141-64.451 12.74-113.891 12.656-116.407l-.061-1.161v-1.643-1025.001l-.018-1.257.079-1.542c.082-2.459 1.494-51.921-12.656-116.412-8.27-37.696-20.19-73.168-35.427-105.43-18.53-39.235-42.088-73.857-70.019-102.906-35.17-36.577-78.234-65.225-127.997-85.149-59.338-23.758-129.731-35.804-209.223-35.804h-1011.189c-79.492 0-149.884 12.046-209.222 35.803-49.763 19.925-92.827 48.572-127.997 85.149-27.932 29.049-51.489 63.672-70.019 102.906-15.238 32.263-27.157 67.735-35.427 105.431-14.141 64.451-12.74 113.891-12.656 116.408l.06 1.16v1.643 512.503 512.498l.019 1.257-.079 1.542c-.082 2.459-1.494 51.921 12.656 116.412 8.27 37.695 20.189 73.167 35.427 105.43 18.53 39.234 42.087 73.857 70.019 102.906 35.169 36.577 78.234 65.224 127.997 85.149 59.338 23.757 129.73 35.803 209.222 35.803z" fill="#414241" transform="translate(1530.5941 2050)"/></g></g></svg>

<?xml version="1.0" encoding="UTF-8" standalone="no"?>
<svg
   xmlns:dc="http://purl.org/dc/elements/1.1/"
   xmlns:cc="http://creativecommons.org/ns#"
   xmlns:rdf="http://www.w3.org/1999/02/22-rdf-syntax-ns#"
   xmlns:svg="http://www.w3.org/2000/svg"
   xmlns="http://www.w3.org/2000/svg"
   viewBox="0 0 2733.3333 2733.3333"
   height="2733.3333"
   width="2733.3333"
   xml:space="preserve"
   id="svg2"
   version="1.1"><metadata
     id="metadata8"><rdf:RDF><cc:Work
         rdf:about=""><dc:format>image/svg+xml</dc:format><dc:type
           rdf:resource="http://purl.org/dc/dcmitype/StillImage" /></cc:Work></rdf:RDF></metadata><defs
     id="defs6"><clipPath
       id="clipPath20"
       clipPathUnits="userSpaceOnUse"><path
         id="path18"
         d="M 0,2050 H 2050 V 0 H 0 Z" /></clipPath><clipPath
       id="clipPath44"
       clipPathUnits="userSpaceOnUse"><path
         id="path42"
         d="M 0,2050 H 2050 V 0 H 0 Z" /></clipPath></defs><g
     transform="matrix(1.3333333,0,0,-1.3333333,0,2733.3333)"
     id="g10"><path
       id="path12"
       style="fill:#424242;fill-opacity:1;fill-rule:nonzero;stroke:none"
       d="M 0,0 H 2050 V 2050 H 0 Z" /><g
       id="g14"><g
         clip-path="url(#clipPath20)"
         id="g16"><g
           transform="translate(1530.1018,1)"
           id="g22"><path
             id="path24"
             style="fill:#53c3ee;fill-opacity:1;fill-rule:nonzero;stroke:none"
             d="M 0,0 H -505.101 V 1024.001 H 518.754 V 512 C 518.754,512 541.961,0 0,0" /></g><g
           transform="translate(519.8982,1)"
           id="g26"><path
             id="path28"
             style="fill:#f2e247;fill-opacity:1;fill-rule:nonzero;stroke:none"
             d="M 0,0 H 505.102 V 1024.001 H -518.754 V 512 C -518.754,512 -541.961,0 0,0" /></g><g
           transform="translate(1530.1018,2049)"
           id="g30"><path
             id="path32"
             style="fill:#eb6868;fill-opacity:1;fill-rule:nonzero;stroke:none"
             d="M 0,0 H -505.101 V -1023.999 H 518.754 v 512 C 518.754,-511.999 541.961,0 0,0" /></g><g
           transform="translate(519.8982,2049)"
           id="g34"><path
             id="path36"
             style="fill:#75c16e;fill-opacity:1;fill-rule:nonzero;stroke:none"
             d="M 0,0 H 505.102 V -1023.999 H -518.754 v 512 C -518.754,-511.999 -541.961,0 0,0" /></g></g></g><g
       id="g38"><g
         clip-path="url(#clipPath44)"
         id="g40"><g
           transform="translate(1,1025.0011)"
           id="g46"><path
             id="path48"
             style="fill:none;stroke:#424242;stroke-width:96;stroke-linecap:butt;stroke-linejoin:miter;stroke-miterlimit:10;stroke-dasharray:none;stroke-opacity:1"
             d="M 0,0 H 2048" /></g><g
           transform="translate(1025,2049)"
           id="g50"><path
             id="path52"
             style="fill:none;stroke:#424242;stroke-width:96;stroke-linecap:butt;stroke-linejoin:miter;stroke-miterlimit:10;stroke-dasharray:none;stroke-opacity:1"
             d="M 0,0 V -2048 0" /></g><g
           transform="translate(1530.5941,2050)"
           id="g54"><path
             id="path56"
             style="fill:#414241;fill-opacity:1;fill-rule:nonzero;stroke:none"
             d="m 0,0 h -1011.189 c -542.49,0 -519.26,-512.499 -519.26,-512.499 v -512.498 -512.503 c 0,0 -23.23,-512.5 519.26,-512.5 H 0 c 542.491,0 519.261,512.5 519.261,512.5 V -512.499 C 519.261,-512.499 542.491,0 0,0 m 0,-64 c 79.492,0 149.885,-12.046 209.223,-35.804 49.763,-19.924 92.827,-48.572 127.997,-85.149 27.932,-29.048 51.49,-63.671 70.019,-102.905 15.237,-32.263 27.157,-67.735 35.427,-105.43 14.141,-64.451 12.74,-113.891 12.656,-116.407 l -0.061,-1.161 v -1.643 -1025.001 l -0.018,-1.257 0.079,-1.542 c 0.082,-2.459 1.494,-51.921 -12.656,-116.412 -8.27,-37.696 -20.19,-73.168 -35.427,-105.43 -18.53,-39.235 -42.088,-73.857 -70.019,-102.906 -35.17,-36.577 -78.234,-65.225 -127.997,-85.149 C 149.885,-1973.954 79.492,-1986 0,-1986 h -1011.189 c -79.492,0 -149.884,12.046 -209.222,35.803 -49.763,19.925 -92.827,48.572 -127.997,85.149 -27.932,29.049 -51.489,63.672 -70.019,102.906 -15.238,32.263 -27.157,67.735 -35.427,105.431 -14.141,64.451 -12.74,113.891 -12.656,116.408 l 0.06,1.16 v 1.643 512.503 512.498 l 0.019,1.257 -0.079,1.542 c -0.082,2.459 -1.494,51.921 12.656,116.412 8.27,37.695 20.189,73.167 35.427,105.43 18.53,39.234 42.087,73.857 70.019,102.906 35.169,36.577 78.234,65.224 127.997,85.149 59.338,23.757 129.73,35.803 209.222,35.803 L 0,-64" /></g></g></g></g></svg>
